projgeom/figs/F.svg

<?xml version="1.0" encoding="ISO-8859-1" standalone="no"?>

<svg 
     version="1.1"
     baseProfile="full"
     xmlns="http://www.w3.org/2000/svg"
     xmlns:xlink="http://www.w3.org/1999/xlink"
     xmlns:ev="http://www.w3.org/2001/xml-events"
     width="28.01701688739408cm"
     height="21.604799758419624cm"
     viewBox="0 0 768 592"
     >
<title>

</title>
<g stroke-linejoin="miter" stroke-dashoffset="0.0000" stroke-dasharray="none" stroke-width="1.0000" stroke-miterlimit="10.000" stroke-linecap="square">
<g id="misc">
</g><!-- misc -->
<g id="layer0">
<clipPath id="clip1">
  <path d="M 0.0000 0.0000 L 0.0000 593.00 L 769.00 593.00 L 769.00 0.0000 z"/>
</clipPath>
<g clip-path="url(#clip1)">
<g stroke-linejoin="round" stroke-linecap="round" fill="none" stroke-opacity="1.0000" stroke="#000000">
  <path d="M 166.03 245.28 C 129.60 304.23 177.39 399.79 272.76 458.74 C 368.14 517.68 474.98 517.68 511.41 458.74 C 547.84 399.79 500.06 304.23 404.69 245.28 C 309.31 186.34 202.46 186.34 166.03 245.28 z"/>
<title>Ellipse c</title>
<desc>Ellipse c: Conic through a, B, C, D, E</desc>

</g> <!-- drawing style -->
</g> <!-- clip1 -->
<clipPath id="clip2">
  <path d="M 0.0000 0.0000 L 0.0000 593.00 L 769.00 593.00 L 769.00 0.0000 z"/>
</clipPath>
<g clip-path="url(#clip2)">
<g fill-opacity="1.0000" fill-rule="nonzero" stroke="none" fill="#000000">
  <path d="M 386.28 475.58 L 387.83 475.78 Q 387.58 477.39 386.53 478.30 Q 385.48 479.22 383.95 479.22 Q 382.03 479.22 380.87 477.96 Q 379.70 476.70 379.70 474.38 Q 379.70 472.86 380.20 471.73 Q 380.70 470.59 381.73 470.02 Q 382.75 469.45 383.95 469.45 Q 385.48 469.45 386.45 470.23 Q 387.41 471.00 387.69 472.41 L 386.14 472.64 Q 385.92 471.70 385.37 471.23 Q 384.81 470.75 384.02 470.75 Q 382.83 470.75 382.08 471.61 Q 381.33 472.47 381.33 474.33 Q 381.33 476.20 382.05 477.05 Q 382.77 477.91 383.94 477.91 Q 384.86 477.91 385.48 477.34 Q 386.11 476.77 386.28 475.58 z"/>
<title>Ellipse c</title>
<desc>Ellipse c: Conic through a, B, C, D, E</desc>

</g> <!-- drawing style -->
</g> <!-- clip2 -->
<clipPath id="clip3">
  <path d="M 0.0000 0.0000 L 0.0000 593.00 L 769.00 593.00 L 769.00 0.0000 z"/>
</clipPath>
<g clip-path="url(#clip3)">
<g stroke-linejoin="round" stroke-dasharray="9.0000,8.0000" stroke-linecap="butt" fill="none" stroke-opacity="1.0000" stroke="#000000">
  <path d="M -5.0000 249.99 L 774.00 98.602"/>
<title>Line f</title>
<desc>Line f: Tangent to c through F</desc>

</g> <!-- drawing style -->
</g> <!-- clip3 -->
<clipPath id="clip4">
  <path d="M 0.0000 0.0000 L 0.0000 593.00 L 769.00 593.00 L 769.00 0.0000 z"/>
</clipPath>
<g clip-path="url(#clip4)">
<g fill-opacity="1.0000" fill-rule="nonzero" stroke="none" fill="#000000">
  <path d="M 6.5625 262.00 L 6.5625 253.89 L 5.1719 253.89 L 5.1719 252.67 L 6.5625 252.67 L 6.5625 251.67 Q 6.5625 250.73 6.7344 250.28 Q 6.9531 249.66 7.5312 249.27 Q 8.1094 248.89 9.1562 248.89 Q 9.8125 248.89 10.625 249.05 L 10.391 250.44 Q 9.8906 250.34 9.4531 250.34 Q 8.7344 250.34 8.4375 250.65 Q 8.1406 250.95 8.1406 251.80 L 8.1406 252.67 L 9.9531 252.67 L 9.9531 253.89 L 8.1406 253.89 L 8.1406 262.00 L 6.5625 262.00 z"/>
<title>Line f</title>
<desc>Line f: Tangent to c through F</desc>

</g> <!-- drawing style -->
</g> <!-- clip4 -->
<clipPath id="clip5">
  <path d="M 0.0000 0.0000 L 0.0000 593.00 L 769.00 593.00 L 769.00 0.0000 z"/>
</clipPath>
<g clip-path="url(#clip5)">
<g stroke-linejoin="round" stroke-dasharray="9.0000,8.0000" stroke-linecap="butt" fill="none" stroke-opacity="1.0000" stroke="#000000">
  <path d="M 551.60 598.00 L 463.71 -5.0000"/>
<title>Line g</title>
<desc>Line g: Tangent to c through F</desc>

</g> <!-- drawing style -->
</g> <!-- clip5 -->
<clipPath id="clip6">
  <path d="M 0.0000 0.0000 L 0.0000 593.00 L 769.00 593.00 L 769.00 0.0000 z"/>
</clipPath>
<g clip-path="url(#clip6)">
<g fill-opacity="1.0000" fill-rule="nonzero" stroke="none" fill="#000000">
  <path d="M 449.89 18.781 L 451.44 19.000 Q 451.53 19.719 451.97 20.047 Q 452.56 20.484 453.58 20.484 Q 454.67 20.484 455.27 20.039 Q 455.88 19.594 456.08 18.812 Q 456.20 18.328 456.20 16.781 Q 455.16 18.000 453.61 18.000 Q 451.69 18.000 450.63 16.609 Q 449.58 15.219 449.58 13.281 Q 449.58 11.938 450.06 10.812 Q 450.55 9.6875 451.47 9.0703 Q 452.39 8.4531 453.62 8.4531 Q 455.28 8.4531 456.34 9.7969 L 456.34 8.6719 L 457.81 8.6719 L 457.81 16.734 Q 457.81 18.922 457.37 19.828 Q 456.92 20.734 455.96 21.258 Q 455.00 21.781 453.59 21.781 Q 451.92 21.781 450.89 21.031 Q 449.86 20.281 449.89 18.781 z M 451.20 13.172 Q 451.20 15.000 451.94 15.844 Q 452.67 16.688 453.77 16.688 Q 454.86 16.688 455.59 15.852 Q 456.33 15.016 456.33 13.219 Q 456.33 11.500 455.57 10.633 Q 454.81 9.7656 453.73 9.7656 Q 452.69 9.7656 451.95 10.625 Q 451.20 11.484 451.20 13.172 z"/>
<title>Line g</title>
<desc>Line g: Tangent to c through F</desc>

</g> <!-- drawing style -->
</g> <!-- clip6 -->
<clipPath id="clip7">
  <path d="M 0.0000 0.0000 L 0.0000 593.00 L 769.00 593.00 L 769.00 0.0000 z"/>
</clipPath>
<g clip-path="url(#clip7)">
<g stroke-linejoin="round" stroke-linecap="round" fill="none" stroke-opacity="1.0000" stroke="#ff0000">
  <path d="M -5.0000 46.008 L 774.00 565.34"/>
<title>Line h</title>
<desc>Line h: Line through G, H</desc>

</g> <!-- drawing style -->
</g> <!-- clip7 -->
<clipPath id="clip8">
  <path d="M 0.0000 0.0000 L 0.0000 593.00 L 769.00 593.00 L 769.00 0.0000 z"/>
</clipPath>
<g clip-path="url(#clip8)">
<g fill-opacity="1.0000" fill-rule="nonzero" stroke="none" fill="#ff0000">
  <path d="M 6.1875 72.000 L 6.1875 59.109 L 7.7656 59.109 L 7.7656 63.734 Q 8.8750 62.453 10.562 62.453 Q 11.594 62.453 12.359 62.859 Q 13.125 63.266 13.461 63.992 Q 13.797 64.719 13.797 66.078 L 13.797 72.000 L 12.203 72.000 L 12.203 66.078 Q 12.203 64.891 11.688 64.352 Q 11.172 63.812 10.234 63.812 Q 9.5312 63.812 8.9141 64.180 Q 8.2969 64.547 8.0312 65.172 Q 7.7656 65.797 7.7656 66.891 L 7.7656 72.000 L 6.1875 72.000 z"/>
<title>Line h</title>
<desc>Line h: Line through G, H</desc>

</g> <!-- drawing style -->
</g> <!-- clip8 -->
<clipPath id="clip9">
  <path d="M 0.0000 0.0000 L 0.0000 593.00 L 769.00 593.00 L 769.00 0.0000 z"/>
</clipPath>
<g clip-path="url(#clip9)">
<g fill-opacity="1.0000" fill-rule="nonzero" stroke="none" fill="#ff0000">
  <path d="M 491.94 154.39 C 491.94 157.15 489.70 159.39 486.94 159.39 C 484.18 159.39 481.94 157.15 481.94 154.39 C 481.94 151.63 484.18 149.39 486.94 149.39 C 489.70 149.39 491.94 151.63 491.94 154.39 z"/>
<title>Point F</title>
<desc>F = (5, 5)</desc>

</g> <!-- drawing style -->
</g> <!-- clip9 -->
<clipPath id="clip10">
  <path d="M 0.0000 0.0000 L 0.0000 593.00 L 769.00 593.00 L 769.00 0.0000 z"/>
</clipPath>
<g clip-path="url(#clip10)">
<g stroke-linejoin="round" stroke-linecap="round" fill="none" stroke-opacity="1.0000" stroke="#000000">
  <path d="M 491.94 154.39 C 491.94 157.15 489.70 159.39 486.94 159.39 C 484.18 159.39 481.94 157.15 481.94 154.39 C 481.94 151.63 484.18 149.39 486.94 149.39 C 489.70 149.39 491.94 151.63 491.94 154.39 z"/>
<title>Point F</title>
<desc>F = (5, 5)</desc>

</g> <!-- drawing style -->
</g> <!-- clip10 -->
<clipPath id="clip11">
  <path d="M 0.0000 0.0000 L 0.0000 593.00 L 769.00 593.00 L 769.00 0.0000 z"/>
</clipPath>
<g clip-path="url(#clip11)">
<g fill-opacity="1.0000" fill-rule="nonzero" stroke="none" fill="#ff0000">
  <path d="M 492.48 144.00 L 492.48 131.11 L 501.17 131.11 L 501.17 132.64 L 494.19 132.64 L 494.19 136.62 L 500.23 136.62 L 500.23 138.14 L 494.19 138.14 L 494.19 144.00 L 492.48 144.00 z"/>
<title>Point F</title>
<desc>F = (5, 5)</desc>

</g> <!-- drawing style -->
</g> <!-- clip11 -->
<clipPath id="clip12">
  <path d="M 0.0000 0.0000 L 0.0000 593.00 L 769.00 593.00 L 769.00 0.0000 z"/>
</clipPath>
<g clip-path="url(#clip12)">
<g fill-opacity="1.0000" fill-rule="nonzero" stroke="none" fill="#444444">
  <path d="M 234.91 203.95 C 234.91 205.61 233.57 206.95 231.91 206.95 C 230.25 206.95 228.91 205.61 228.91 203.95 C 228.91 202.29 230.25 200.95 231.91 200.95 C 233.57 200.95 234.91 202.29 234.91 203.95 z"/>
<title>Point G</title>
<desc>Point G: Intersection point of c, f</desc>

</g> <!-- drawing style -->
</g> <!-- clip12 -->
<clipPath id="clip13">
  <path d="M 0.0000 0.0000 L 0.0000 593.00 L 769.00 593.00 L 769.00 0.0000 z"/>
</clipPath>
<g clip-path="url(#clip13)">
<g stroke-linejoin="round" stroke-linecap="round" fill="none" stroke-opacity="1.0000" stroke="#000000">
  <path d="M 234.91 203.95 C 234.91 205.61 233.57 206.95 231.91 206.95 C 230.25 206.95 228.91 205.61 228.91 203.95 C 228.91 202.29 230.25 200.95 231.91 200.95 C 233.57 200.95 234.91 202.29 234.91 203.95 z"/>
<title>Point G</title>
<desc>Point G: Intersection point of c, f</desc>

</g> <!-- drawing style -->
</g> <!-- clip13 -->
<clipPath id="clip14">
  <path d="M 0.0000 0.0000 L 0.0000 593.00 L 769.00 593.00 L 769.00 0.0000 z"/>
</clipPath>
<g clip-path="url(#clip14)">
<g fill-opacity="1.0000" fill-rule="nonzero" stroke="none" fill="#444444">
  <path d="M 243.42 192.95 L 243.42 191.44 L 248.88 191.42 L 248.88 196.20 Q 247.62 197.20 246.29 197.71 Q 244.95 198.22 243.55 198.22 Q 241.64 198.22 240.09 197.41 Q 238.55 196.59 237.75 195.05 Q 236.95 193.52 236.95 191.62 Q 236.95 189.73 237.74 188.11 Q 238.53 186.48 240.01 185.69 Q 241.48 184.89 243.41 184.89 Q 244.81 184.89 245.94 185.34 Q 247.06 185.80 247.70 186.61 Q 248.34 187.42 248.69 188.72 L 247.14 189.14 Q 246.86 188.16 246.43 187.59 Q 246.00 187.03 245.20 186.70 Q 244.39 186.36 243.42 186.36 Q 242.25 186.36 241.40 186.71 Q 240.55 187.06 240.02 187.64 Q 239.50 188.22 239.20 188.92 Q 238.72 190.11 238.72 191.52 Q 238.72 193.23 239.31 194.40 Q 239.91 195.56 241.04 196.12 Q 242.17 196.69 243.44 196.69 Q 244.55 196.69 245.60 196.26 Q 246.66 195.83 247.20 195.34 L 247.20 192.95 L 243.42 192.95 z"/>
<title>Point G</title>
<desc>Point G: Intersection point of c, f</desc>

</g> <!-- drawing style -->
</g> <!-- clip14 -->
<clipPath id="clip15">
  <path d="M 0.0000 0.0000 L 0.0000 593.00 L 769.00 593.00 L 769.00 0.0000 z"/>
</clipPath>
<g clip-path="url(#clip15)">
<g fill-opacity="1.0000" fill-rule="nonzero" stroke="none" fill="#444444">
  <path d="M 525.39 397.60 C 525.39 399.26 524.05 400.60 522.39 400.60 C 520.73 400.60 519.39 399.26 519.39 397.60 C 519.39 395.94 520.73 394.60 522.39 394.60 C 524.05 394.60 525.39 395.94 525.39 397.60 z"/>
<title>Point H</title>
<desc>Point H: Intersection point of c, g</desc>

</g> <!-- drawing style -->
</g> <!-- clip15 -->
<clipPath id="clip16">
  <path d="M 0.0000 0.0000 L 0.0000 593.00 L 769.00 593.00 L 769.00 0.0000 z"/>
</clipPath>
<g clip-path="url(#clip16)">
<g stroke-linejoin="round" stroke-linecap="round" fill="none" stroke-opacity="1.0000" stroke="#000000">
  <path d="M 525.39 397.60 C 525.39 399.26 524.05 400.60 522.39 400.60 C 520.73 400.60 519.39 399.26 519.39 397.60 C 519.39 395.94 520.73 394.60 522.39 394.60 C 524.05 394.60 525.39 395.94 525.39 397.60 z"/>
<title>Point H</title>
<desc>Point H: Intersection point of c, g</desc>

</g> <!-- drawing style -->
</g> <!-- clip16 -->
<clipPath id="clip17">
  <path d="M 0.0000 0.0000 L 0.0000 593.00 L 769.00 593.00 L 769.00 0.0000 z"/>
</clipPath>
<g clip-path="url(#clip17)">
<g fill-opacity="1.0000" fill-rule="nonzero" stroke="none" fill="#444444">
  <path d="M 527.44 392.00 L 527.44 379.11 L 529.14 379.11 L 529.14 384.41 L 535.84 384.41 L 535.84 379.11 L 537.55 379.11 L 537.55 392.00 L 535.84 392.00 L 535.84 385.92 L 529.14 385.92 L 529.14 392.00 L 527.44 392.00 z"/>
<title>Point H</title>
<desc>Point H: Intersection point of c, g</desc>

</g> <!-- drawing style -->
</g> <!-- clip17 -->
</g><!-- layer0 -->
</g> <!-- default stroke -->
</svg> <!-- bounding box -->

<svg baseProfile="full" xmlns="http://www.w3.org/2000/svg" width="1058.9" height="816.6" viewBox="0 0 768 592">
  <g stroke-miterlimit="10" stroke-linecap="square">
    <clipPath id="a">
      <path d="M0 0v593h769V0z"/>
    </clipPath>
    <g stroke-linejoin="round" stroke-linecap="round" fill="none" stroke="#000" clip-path="url(#a)">
      <path d="M166 245.3c-36.4 59 11.4 154.5 106.8 213.4 95.3 59 202.2 59 238.6 0 36.4-59-11.3-154.5-106.7-213.4-95.4-59-202.2-59-238.7 0z"/>
    </g>
    <clipPath id="b">
      <path d="M0 0v593h769V0z"/>
    </clipPath>
    <g clip-path="url(#b)">
      <path d="M386.3 475.6l1.5.2q-.2 1.6-1.3 2.5-1 1-2.6 1-1.9 0-3-1.3-1.2-1.3-1.2-3.6 0-1.5.5-2.7.5-1.1 1.5-1.7 1-.6 2.3-.6 1.5 0 2.4.8 1 .8 1.3 2.2l-1.6.2q-.2-.9-.7-1.4-.6-.4-1.4-.4-1.2 0-2 .8-.7.9-.7 2.7 0 1.9.8 2.8.7.8 1.8.8 1 0 1.6-.6.6-.5.8-1.7z"/>
    </g>
    <clipPath id="c">
      <path d="M0 0v593h769V0z"/>
    </clipPath>
    <g stroke-linejoin="round" stroke-dasharray="9.0000,8.0000" stroke-linecap="butt" fill="none" stroke="#000" clip-path="url(#c)">
      <path d="M-5 250L774 98.6"/>
    </g>
    <clipPath id="d">
      <path d="M0 0v593h769V0z"/>
    </clipPath>
    <g clip-path="url(#d)">
      <path d="M6.6 262v-8.1H5.2v-1.2h1.4v-1l.1-1.4q.3-.6.8-1 .6-.4 1.7-.4l1.4.2-.2 1.3h-1q-.7 0-1 .3-.3.3-.3 1.1v.9H10v1.2H8v8.1H6.6z"/>
    </g>
    <clipPath id="e">
      <path d="M0 0v593h769V0z"/>
    </clipPath>
    <g stroke-linejoin="round" stroke-dasharray="9.0000,8.0000" stroke-linecap="butt" fill="none" stroke="#000" clip-path="url(#e)">
      <path d="M551.6 598L463.7-5"/>
    </g>
    <clipPath id="f">
      <path d="M0 0v593h769V0z"/>
    </clipPath>
    <g clip-path="url(#f)">
      <path d="M449.9 18.8l1.5.2q.1.7.6 1 .6.5 1.6.5t1.7-.5q.6-.4.8-1.2l.1-2q-1 1.2-2.6 1.2-2 0-3-1.4t-1-3.3q0-1.4.5-2.5.4-1.1 1.4-1.7.9-.6 2.1-.6 1.7 0 2.7 1.3V8.7h1.5v8q0 2.2-.4 3.1-.5 1-1.4 1.5-1 .5-2.4.5-1.7 0-2.7-.8-1-.7-1-2.2zm1.3-5.6q0 1.8.7 2.6.8.9 1.9.9 1 0 1.8-.8.7-.9.7-2.7 0-1.7-.7-2.6-.8-.8-1.9-.8-1 0-1.8.8-.7.9-.7 2.6z"/>
    </g>
    <clipPath id="g">
      <path d="M0 0v593h769V0z"/>
    </clipPath>
    <g stroke-linejoin="round" stroke-linecap="round" fill="none" stroke="red" clip-path="url(#g)">
      <path d="M-5 46l779 519.3"/>
    </g>
    <clipPath id="h">
      <path d="M0 0v593h769V0z"/>
    </clipPath>
    <g fill="red" clip-path="url(#h)">
      <path d="M6.2 72V59.1h1.6v4.6q1-1.2 2.8-1.2 1 0 1.8.4.7.4 1 1 .4.8.4 2.2V72h-1.6v-6q0-1.1-.5-1.6-.5-.6-1.5-.6-.7 0-1.3.4-.6.3-.9 1-.2.6-.2 1.7V72H6.2z"/>
    </g>
    <clipPath id="i">
      <path d="M0 0v593h769V0z"/>
    </clipPath>
    <g fill="red" clip-path="url(#i)">
      <path d="M492 154.4a5 5 0 1 1-10 0 5 5 0 0 1 10 0z"/>
    </g>
    <clipPath id="j">
      <path d="M0 0v593h769V0z"/>
    </clipPath>
    <g stroke-linejoin="round" stroke-linecap="round" fill="none" stroke="#000" clip-path="url(#j)">
      <path d="M492 154.4a5 5 0 1 1-10 0 5 5 0 0 1 10 0z"/>
    </g>
    <clipPath id="k">
      <path d="M0 0v593h769V0z"/>
    </clipPath>
    <g fill="red" clip-path="url(#k)">
      <path d="M492.5 144v-12.9h8.7v1.5h-7v4h6v1.5h-6v5.9h-1.7z"/>
    </g>
    <clipPath id="l">
      <path d="M0 0v593h769V0z"/>
    </clipPath>
    <g fill="#444" clip-path="url(#l)">
      <path d="M235 204a3 3 0 1 1-6 0 3 3 0 0 1 6 0z"/>
    </g>
    <clipPath id="m">
      <path d="M0 0v593h769V0z"/>
    </clipPath>
    <g stroke-linejoin="round" stroke-linecap="round" fill="none" stroke="#000" clip-path="url(#m)">
      <path d="M235 204a3 3 0 1 1-6 0 3 3 0 0 1 6 0z"/>
    </g>
    <clipPath id="n">
      <path d="M0 0v593h769V0z"/>
    </clipPath>
    <g fill="#444" clip-path="url(#n)">
      <path d="M243.4 193v-1.6h5.5v4.8q-1.3 1-2.6 1.5-1.4.5-2.8.5-1.9 0-3.4-.8t-2.3-2.3q-.9-1.6-.9-3.5t.8-3.5q.8-1.6 2.3-2.4 1.5-.8 3.4-.8 1.4 0 2.5.4 1.2.5 1.8 1.3.6.8 1 2.1l-1.6.4q-.2-1-.7-1.5-.4-.6-1.2-.9-.8-.3-1.8-.3-1.2 0-2 .3-.8.4-1.4 1-.5.5-.8 1.2-.5 1.2-.5 2.6 0 1.7.6 2.9t1.7 1.7q1.2.6 2.4.6t2.2-.4q1-.5 1.6-1V193h-3.8z"/>
    </g>
    <clipPath id="o">
      <path d="M0 0v593h769V0z"/>
    </clipPath>
    <g fill="#444" clip-path="url(#o)">
      <path d="M525.4 397.6a3 3 0 1 1-6 0 3 3 0 0 1 6 0z"/>
    </g>
    <clipPath id="p">
      <path d="M0 0v593h769V0z"/>
    </clipPath>
    <g stroke-linejoin="round" stroke-linecap="round" fill="none" stroke="#000" clip-path="url(#p)">
      <path d="M525.4 397.6a3 3 0 1 1-6 0 3 3 0 0 1 6 0z"/>
    </g>
    <clipPath id="q">
      <path d="M0 0v593h769V0z"/>
    </clipPath>
    <g fill="#444" clip-path="url(#q)">
      <path d="M527.4 392v-12.9h1.7v5.3h6.7v-5.3h1.8V392h-1.8v-6h-6.7v6h-1.7z"/>
    </g>
  </g>
</svg>
